**kern	**dynam
*clefG2	*
*k[b-e-a-]	*
*E-:	*
*M4/4	*
*met(c)	*
=1	=1
2r	.
2c	p
=2	=2
2.B-	.
(<4A-	.
=3	=3
4A-)	.
4G	.
4c	.
4d	.
=4	=4
2e-	.
2r	.
=5	=5
(16g'LL	p
16g'	.
16g'	.
16g'JJ)	f
4g	.
4a-	.
4g	.
=6	=6
2cc	.
2b-	.
=7	=7
4g	.
4f	.
4e-	.
4g	.
=8	=8
2b-	.
2b-	.
=9	=9
4b-	.
16anLL	.
16a	.
16c	.
16cJJ	.
4c	.
4B-	.
=10	=10
!!linebreak:original
2b-	.
2b-	.
=11	=11
2b-	.
2b-	.
=12	=12
2.b-	.
4an	.
=13	=13
2b-	.
4cc	.
4c	.
=14	=14
2c	.
2c	.
=15	=15
4B-	.
4b-	.
4b-	.
4an	.
=16	=16
4b-	.
16b-LL	.
16b-	.
16an	.
16aJJ	.
4b-	.
16e-'LL	p
16e-'	.
(<16e-	.
16cJJ)	.
=17	=17
16d'LL	.
(16d	.
16c	.
16B-JJ)	.
16e-'LL	.
16e-'	.
(16e-	.
16cJJ)	.
(16dLL	.
16b-)	.
16b-'	.
16b-'JJ	.
16b-LL	.
16b-	<
16an	.
16aJJ	.
=18	=18
!!linebreak:original
2.b-	p
4an	.
=19	=19
16b-LL	.
16d	.
16d	.
16dJJ	.
4d	.
4e-	.
4d	.
=20	=20
2.f	<
4e-	>
=21	=21
2b-	]
2b-	.
=22	=22
!	!LO:DY:a
2.b-	f
4a-	.
=23	=23
4cc	.
16ccLL	.
16cc	.
16a-	.
16a-JJ	.
4b-	.
16b-LL	.
16b-	.
16g	.
16gJJ	.
=24	=24
4a-	.
16fLL	.
16f	.
16e-	.
16e-JJ	.
16dLL	.
16b-	.
16b-	.
16b-JJ	.
16b-LL	.
16b-	.
16b-	.
16b-JJ	.
=25	=25
!!linebreak:original
2b-	.
2b-	.
=26	=26
16b-LL	.
16b-	.
16a-	.
16a-JJ	.
4e-	.
4d	.
4g	.
=27	=27
4g	.
4f	.
4f	.
4e-	.
=28	=28
4d	.
16fLL	.
16f	.
16e-	.
16e-JJ	.
16dLL	.
16b-	.
16b-	.
16b-JJ	.
4dd	.
=29	=29
4ee-	.
16dd-XLL	.
16dd-	.
16dd-	.
16b-JJ	.
2cc	.
=30	=30
2cc	.
2b-	.
=31	=31
2b-	.
16a-LL	.
16a-	.
16a-	.
16a-JJ	.
16a-LL	.
16a-	.
16g	.
16fJJ	.
=32	=32
!!linebreak:original
!	!LO:DY:a
4g	p
!	!LO:DY:a
4g	f
4c	.
4f	.
=33	=33
2f	.
2d	.
=34	=34
2.e-	f
4d	.
=35	=35
16e-LL	.
16e-	.
16e-	.
16e-JJ	.
16e-LL	.
16e-	.
16d	.
16dJJ	.
16e-LL	.
16e-	.
16e-	.
16e-JJ	.
16a-'LL	p
16a-'	.
(16a-	.
16fJJ)	.
=36	=36
16g'LL	.
(<16g	.
16f	.
16e-JJ)	.
16a-'LL	.
16a-'	.
(<16a-	.
16fJJ)	.
(16gLL	.
16e-)	<
16e-'	.
16e-'JJ	.
16e-LL	>
16e-	.
16d	.
16dJJ	.
=37	=37
!!linebreak:original
4e-	]
4r	.
2c	p
=38	=38
2.B-	.
[4A-	.
=39	=39
4A-]	.
4G	.
4c	.
4d	.
=40	=40
16e-'LL	.
16e-'	.
16f'	.
16g'JJ	.
16a-'LL	.
16b-'	.
16cc'	.
16dd'JJ	.
8ee-	.
8r	.
(32ddKLL	.
16.cc)	.
(>32b-k	.
16.a-JJ)	.
=41	=41
(<4g	.
4f)	.
8e-L	.
(<8e-	pp
8f	.
8dJ)	.
=42	=42
8e-	.
8r	.
8G 8e-	.
8r	.
4G 4e-	.
4r	.
==	==
*-	*-
!!!RDF**kern: > = above
!!!RDF**kern: < = below
